src/assets/icons/audit.svg

<svg width="24" height="24" viewBox="0 0 24 24" fill="none" xmlns="http://www.w3.org/2000/svg">
<path d="M18.2003 8.54353H15.9938V22.3293H0.258789V15.0175L2.20604 13.2648L8.07129 3.78303L10.491 1.60303L11.5675 2.57178L18.2003 8.54353Z" fill="white"/>
<path d="M17.4813 2.77268H16.1806C15.9811 2.77268 15.8193 2.61093 15.8193 2.41143V2.07243C15.8193 1.87293 15.9811 1.71143 16.1806 1.71143H17.4813C17.6808 1.71143 17.8426 1.87293 17.8426 2.07243V2.41143C17.8426 2.61093 17.6808 2.77268 17.4813 2.77268Z" fill="white"/>
<path d="M20.1154 2.77268H21.4159C21.6154 2.77268 21.7772 2.61093 21.7772 2.41143V2.07243C21.7772 1.87293 21.6154 1.71143 21.4159 1.71143H20.1154C19.9157 1.71143 19.7539 1.87293 19.7539 2.07243V2.41143C19.7539 2.61093 19.9157 2.77268 20.1154 2.77268Z" fill="white"/>
<path d="M13.1622 16.8053C13.1622 18.3028 11.9487 19.5168 10.4517 19.5168C8.95471 19.5168 7.74121 18.3028 7.74121 16.8053C7.74121 15.3078 8.95471 14.0938 10.4517 14.0938C11.9487 14.0938 13.1622 15.3078 13.1622 16.8053Z" fill="white"/>
<path d="M18.2004 8.54353H15.9937V22.3293H1.78418V15.5818L3.73268 13.8288L7.85418 5.91528L11.5677 2.57178L18.2004 8.54353Z" fill="#47BAB8" fill-opacity="0.75"/>
<path d="M18.2004 8.54353H15.9937V22.3293H14.1767V7.54553C14.1767 6.91603 13.9094 6.31628 13.4414 5.89478L10.6592 3.38953L11.5677 2.57178L18.2004 8.54353Z" fill="#47BAB8"/>
<path d="M8.39062 10.9489H12.4969V6.21289H8.39062V10.9489Z" fill="white"/>
<path d="M12.4976 11.1597H8.40706C8.29031 11.1597 8.19531 11.065 8.19531 10.9482V9.24746C8.19531 9.13071 8.29031 9.03596 8.40706 9.03596C8.52406 9.03596 8.61881 9.13071 8.61881 9.24746V10.7367H12.2858V6.42446H9.43856C9.32181 6.42446 9.22706 6.32971 9.22706 6.21296C9.22706 6.09596 9.32181 6.00146 9.43856 6.00146H12.4976C12.6143 6.00146 12.7093 6.09596 12.7093 6.21296V10.9482C12.7093 11.065 12.6143 11.1597 12.4976 11.1597Z" fill="#27227D"/>
<path d="M10.4918 11.1602C10.375 11.1602 10.2803 11.0657 10.2803 10.949V6.21296C10.2803 6.09621 10.375 6.00146 10.4918 6.00146C10.6088 6.00146 10.7035 6.09621 10.7035 6.21296V10.949C10.7035 11.0657 10.6088 11.1602 10.4918 11.1602Z" fill="#27227D"/>
<mask id="mask0_122_1542" style="mask-type:luminance" maskUnits="userSpaceOnUse" x="7" y="1" width="12" height="8">
<path d="M7.80762 1.41016H18.4316V8.83216H7.80762V1.41016Z" fill="white"/>
</mask>
<g mask="url(#mask0_122_1542)">
<path d="M18.161 8.7926H15.9542C15.8375 8.7926 15.7427 8.69785 15.7427 8.5811C15.7427 8.4641 15.8375 8.3696 15.9542 8.3696H17.6097L10.4517 1.92435L8.17272 3.9761C8.08572 4.05435 7.95197 4.04735 7.87372 3.9606C7.79547 3.87385 7.80247 3.7401 7.88947 3.66185L10.31 1.4826C10.3905 1.4101 10.513 1.4101 10.5932 1.4826L18.3025 8.42385C18.3677 8.48235 18.3897 8.5751 18.3585 8.65685C18.3272 8.7386 18.2485 8.7926 18.161 8.7926Z" fill="#27227D"/>
</g>
<path d="M15.9547 21.7184C15.8379 21.7184 15.7432 21.6236 15.7432 21.5069V8.58113C15.7432 8.46413 15.8379 8.36963 15.9547 8.36963C16.0717 8.36963 16.1664 8.46413 16.1664 8.58113V21.5069C16.1664 21.6236 16.0717 21.7184 15.9547 21.7184Z" fill="#27227D"/>
<mask id="mask1_122_1542" style="mask-type:luminance" maskUnits="userSpaceOnUse" x="0" y="13" width="11" height="10">
<path d="M0.00683594 13.083H10.9883V22.5778H0.00683594V13.083Z" fill="white"/>
</mask>
<g mask="url(#mask1_122_1542)">
<path d="M10.7711 22.5775H0.218586C0.101836 22.5775 0.00683594 22.4828 0.00683594 22.366V15.0555C0.00683594 14.9955 0.0323359 14.9368 0.0770859 14.8968L2.02534 13.144C2.11209 13.066 2.24609 13.073 2.32434 13.1598C2.40259 13.2465 2.39534 13.3803 2.30859 13.4585L0.430336 15.1483V22.1543H10.7711C10.8878 22.1543 10.9826 22.249 10.9826 22.366C10.9826 22.4828 10.8878 22.5775 10.7711 22.5775Z" fill="#27227D"/>
</g>
<mask id="mask2_122_1542" style="mask-type:luminance" maskUnits="userSpaceOnUse" x="15" y="2" width="9" height="12">
<path d="M15.7373 2.02832H23.9933V13.8878H15.7373V2.02832Z" fill="white"/>
</mask>
<g mask="url(#mask2_122_1542)">
<path d="M18.7986 13.8878C18.0706 13.8878 17.3898 13.5548 16.7753 12.8978C16.4568 12.5575 16.0713 12.0048 15.7693 11.4553C15.7131 11.353 15.7506 11.2243 15.8528 11.168C15.9556 11.1118 16.0841 11.1493 16.1403 11.2518C16.4221 11.7645 16.7928 12.2973 17.0846 12.6088C17.6158 13.1768 18.1926 13.4648 18.7986 13.4648C19.9568 13.4648 20.9833 12.432 21.8498 10.3953C23.0041 7.67802 23.4901 3.98927 23.5691 2.91152C23.5771 2.79202 23.5363 2.67752 23.4538 2.58927C23.3718 2.50152 23.2608 2.45327 23.1411 2.45327H21.7773C21.6603 2.45327 21.5656 2.35852 21.5656 2.24177C21.5656 2.12502 21.6603 2.03027 21.7773 2.03027H23.1411C23.3758 2.03027 23.6026 2.12877 23.7631 2.30027C23.9241 2.47252 24.0073 2.70602 23.9913 2.94102C23.9051 4.11752 23.4221 7.77677 22.2393 10.5608C21.3001 12.7683 20.1426 13.8878 18.7986 13.8878Z" fill="#27227D"/>
</g>
<path d="M14.0599 5.09926C13.9576 5.09926 13.8676 5.02526 13.8511 4.92101C13.7356 4.19826 13.6449 3.45826 13.6076 2.94126C13.5909 2.70676 13.6729 2.47351 13.8331 2.30101C13.9931 2.12951 14.2194 2.03076 14.4536 2.03076H15.8196C15.9364 2.03076 16.0311 2.12551 16.0311 2.24226C16.0311 2.35926 15.9364 2.45401 15.8196 2.45401H14.4536C14.3346 2.45401 14.2244 2.50201 14.1431 2.58926C14.0614 2.67701 14.0214 2.79126 14.0299 2.91101C14.0661 3.41651 14.1556 4.14301 14.2691 4.85451C14.2876 4.96976 14.2089 5.07826 14.0936 5.09676C14.0821 5.09851 14.0709 5.09926 14.0599 5.09926Z" fill="#27227D"/>
<path d="M17.4813 2.77268H16.1806C15.9811 2.77268 15.8193 2.61093 15.8193 2.41143V2.07243C15.8193 1.87293 15.9811 1.71143 16.1806 1.71143H17.4813C17.6808 1.71143 17.8426 1.87293 17.8426 2.07243V2.41143C17.8426 2.61093 17.6808 2.77268 17.4813 2.77268Z" fill="#FFEA9E"/>
<path d="M20.1154 2.77268H21.4159C21.6154 2.77268 21.7772 2.61093 21.7772 2.41143V2.07243C21.7772 1.87293 21.6154 1.71143 21.4159 1.71143H20.1154C19.9157 1.71143 19.7539 1.87293 19.7539 2.07243V2.41143C19.7539 2.61093 19.9157 2.77268 20.1154 2.77268Z" fill="#FFEA9E"/>
<path d="M16.1811 1.92251C16.0986 1.92251 16.0316 1.98976 16.0316 2.07226V2.41126C16.0316 2.49376 16.0986 2.56076 16.1811 2.56076H17.4819C17.5644 2.56076 17.6316 2.49376 17.6316 2.41126V2.07226C17.6316 1.98976 17.5644 1.92251 17.4819 1.92251H16.1811ZM17.4819 2.98401H16.1811C15.8654 2.98401 15.6084 2.72701 15.6084 2.41126V2.07226C15.6084 1.75651 15.8654 1.49951 16.1811 1.49951H17.4819C17.7979 1.49951 18.0546 1.75651 18.0546 2.07226V2.41126C18.0546 2.72701 17.7979 2.98401 17.4819 2.98401Z" fill="#27227D"/>
<path d="M20.115 1.92276C20.0325 1.92276 19.9655 1.98976 19.9655 2.07226V2.41126C19.9655 2.49376 20.0325 2.56076 20.115 2.56076H21.4157C21.4982 2.56076 21.5652 2.49376 21.5652 2.41126V2.07226C21.5652 1.98976 21.4982 1.92276 21.4157 1.92276H20.115ZM21.4157 2.98401H20.115C19.7992 2.98401 19.542 2.72701 19.542 2.41126V2.07226C19.542 1.75651 19.7992 1.49951 20.115 1.49951H21.4157C21.7317 1.49951 21.9887 1.75651 21.9887 2.07226V2.41126C21.9887 2.72701 21.7317 2.98401 21.4157 2.98401Z" fill="#27227D"/>
<path d="M18.7987 11.4634C17.6547 11.4634 16.5762 11.1117 15.8732 10.8167C15.7652 10.7714 15.7145 10.6474 15.7597 10.5397C15.805 10.4319 15.929 10.3814 16.037 10.4264C16.7042 10.7067 17.7252 11.0404 18.7987 11.0404C19.9065 11.0404 20.9662 10.7877 21.949 10.2894C22.053 10.2367 22.1805 10.2784 22.2332 10.3824C22.2862 10.4867 22.2445 10.6139 22.1405 10.6669C21.0977 11.1954 19.9735 11.4634 18.7987 11.4634Z" fill="#27227D"/>
<path d="M13.1622 16.8053C13.1622 18.3028 11.9487 19.5168 10.4517 19.5168C8.95471 19.5168 7.74121 18.3028 7.74121 16.8053C7.74121 15.3078 8.95471 14.0938 10.4517 14.0938C11.9487 14.0938 13.1622 15.3078 13.1622 16.8053Z" fill="#FFEA9E"/>
<path d="M13.1627 16.806C13.1627 18.3035 11.9479 19.5162 10.4522 19.5162C10.1489 19.5162 9.85844 19.4667 9.58594 19.3737C10.6584 19.0127 11.4299 18.0002 11.4299 16.806C11.4299 15.6115 10.6584 14.5977 9.58594 14.2365C9.85844 14.1435 10.1489 14.0942 10.4522 14.0942C11.9479 14.0942 13.1627 15.3082 13.1627 16.806Z" fill="#FFD36E"/>
<path d="M10.4513 14.3053C9.07355 14.3053 7.95255 15.4268 7.95255 16.8053C7.95255 18.1838 9.07355 19.3053 10.4513 19.3053C11.8293 19.3053 12.9503 18.1838 12.9503 16.8053C12.9503 15.4268 11.8293 14.3053 10.4513 14.3053ZM10.4513 19.7283C8.8403 19.7283 7.5293 18.4171 7.5293 16.8053C7.5293 15.1936 8.8403 13.8823 10.4513 13.8823C12.0628 13.8823 13.3735 15.1936 13.3735 16.8053C13.3735 18.4171 12.0628 19.7283 10.4513 19.7283Z" fill="#27227D"/>
<path d="M10.4513 18.1236C9.72479 18.1236 9.13379 17.5321 9.13379 16.8053C9.13379 16.0786 9.72479 15.4873 10.4513 15.4873C11.178 15.4873 11.769 16.0786 11.769 16.8053C11.769 17.5321 11.178 18.1236 10.4513 18.1236Z" fill="white"/>
<path d="M10.4519 15.6989C9.8421 15.6989 9.3461 16.1951 9.3461 16.8054C9.3461 17.4156 9.8421 17.9121 10.4519 17.9121C11.0619 17.9121 11.5581 17.4156 11.5581 16.8054C11.5581 16.1951 11.0619 15.6989 10.4519 15.6989ZM10.4519 18.3351C9.60885 18.3351 8.92285 17.6489 8.92285 16.8054C8.92285 15.9619 9.60885 15.2759 10.4519 15.2759C11.2954 15.2759 11.9814 15.9619 11.9814 16.8054C11.9814 17.6489 11.2954 18.3351 10.4519 18.3351Z" fill="#27227D"/>
<mask id="mask3_122_1542" style="mask-type:luminance" maskUnits="userSpaceOnUse" x="10" y="13" width="10" height="10">
<path d="M10.2402 13.4595H19.0165V22.578H10.2402V13.4595Z" fill="white"/>
</mask>
<g mask="url(#mask3_122_1542)">
<path d="M16.362 22.5781H12.7542C11.4155 22.5781 10.2412 21.3116 10.2412 19.8679V19.5166C10.2412 19.3999 10.336 19.3051 10.453 19.3051C10.5697 19.3051 10.6645 19.3999 10.6645 19.5166V19.8679C10.6645 21.0861 11.641 22.1551 12.7542 22.1551H16.362C17.4847 22.1551 18.587 21.0031 18.587 19.8299V13.6759C18.587 13.5591 18.6817 13.4644 18.7985 13.4644C18.9155 13.4644 19.0102 13.5591 19.0102 13.6759V19.8299C19.0102 21.2424 17.7232 22.5781 16.362 22.5781Z" fill="#27227D"/>
</g>
<path d="M3.58632 10.2657L4.17707 7.45115H3.09082L5.79957 3.7749L5.20682 6.6009H6.29532L3.58632 10.2657Z" fill="white"/>
<path d="M8.72028 6.12626C8.72028 3.72776 6.71278 1.79801 4.28703 1.92701C2.07428 2.04451 0.304031 3.92626 0.31253 6.14301C0.31678 7.24051 0.74128 8.23901 1.43378 8.98551C1.89003 9.47776 2.16753 10.1093 2.16753 10.7805V13.3795C2.16753 14.6733 3.17928 15.783 4.47228 15.8068C5.78978 15.831 6.86528 14.7698 6.86528 13.4575V10.6793C6.86528 10.0623 7.12353 9.48226 7.55053 9.03701C8.27503 8.28151 8.72028 7.25576 8.72028 6.12626Z" fill="white"/>
<path d="M8.71991 6.12707C8.71991 7.25657 8.27391 8.28182 7.55016 9.03757C7.12266 9.48157 6.86441 10.0628 6.86441 10.6791V13.4568C6.86441 14.7698 5.78941 15.8316 4.47166 15.8061C4.18791 15.8006 3.91716 15.7441 3.66866 15.6426C4.53941 15.2986 5.15441 14.4496 5.15441 13.4568V10.6791C5.15441 10.0628 5.41266 9.48157 5.83866 9.03757C6.56391 8.28182 7.00841 7.25657 7.00841 6.12707C7.00841 4.09782 5.57216 2.40432 3.66016 2.00932C3.86491 1.96707 4.07366 1.93882 4.28666 1.92757C6.71216 1.79782 8.71991 3.72857 8.71991 6.12707Z" fill="#47BAB8" fill-opacity="0.2"/>
<path d="M4.51837 2.13239C4.44512 2.13239 4.37187 2.13439 4.29812 2.13839C2.20887 2.24939 0.515866 4.04539 0.523866 6.14239C0.527866 7.14689 0.905866 8.10589 1.58887 8.84214C2.09837 9.39164 2.37887 10.0799 2.37887 10.7806V13.3796C2.37887 14.5801 3.31962 15.5744 4.47612 15.5954C5.05412 15.6054 5.60012 15.3889 6.01262 14.9841C6.42587 14.5786 6.65337 14.0366 6.65337 13.4576V10.6794C6.65337 10.0266 6.91762 9.39139 7.39762 8.89064C8.11387 8.14389 8.50837 7.16189 8.50837 6.12664C8.50837 5.01864 8.06537 3.98864 7.26112 3.22639C6.51212 2.51639 5.54512 2.13239 4.51837 2.13239ZM4.51662 16.0189C4.50062 16.0189 4.48437 16.0186 4.46837 16.0184C3.08287 15.9931 1.95562 14.8094 1.95562 13.3796V10.7806C1.95562 10.1869 1.71512 9.60064 1.27837 9.12964C0.523116 8.31539 0.104867 7.25514 0.100616 6.14389C0.0918665 3.82514 1.96462 1.83889 4.27562 1.71589C5.50087 1.65114 6.66487 2.07839 7.55237 2.91964C8.44187 3.76239 8.93162 4.90139 8.93162 6.12664C8.93162 7.27164 8.49537 8.35739 7.70312 9.18339C7.29912 9.60489 7.07662 10.1361 7.07662 10.6794V13.4576C7.07662 14.1511 6.80412 14.8004 6.30912 15.2861C5.82662 15.7596 5.19162 16.0189 4.51662 16.0189Z" fill="#27227D"/>
<path d="M6.86458 12.359H2.16683C2.04983 12.359 1.95508 12.2643 1.95508 12.1475C1.95508 12.0308 2.04983 11.936 2.16683 11.936H6.86458C6.98133 11.936 7.07608 12.0308 7.07608 12.1475C7.07608 12.2643 6.98133 12.359 6.86458 12.359Z" fill="#27227D"/>
<path d="M3.58632 10.2657L4.17707 7.45115H3.09082L5.79957 3.7749L5.20682 6.6009H6.29532L3.58632 10.2657Z" fill="#47BAB8" fill-opacity="0.5"/>
<path d="M3.51035 7.23975H4.17785C4.2416 7.23975 4.30185 7.2685 4.3421 7.318C4.38235 7.3675 4.3981 7.4325 4.38485 7.49475L3.9936 9.36L5.8766 6.8125H5.2076C5.14385 6.8125 5.0836 6.78375 5.04335 6.73425C5.0031 6.685 4.98735 6.62 5.0006 6.55775L5.3936 4.684L3.51035 7.23975ZM3.5871 10.4772C3.55785 10.4772 3.52835 10.4712 3.5006 10.4587C3.40985 10.4182 3.3596 10.3197 3.3801 10.2225L3.9171 7.66275H3.0916C3.0116 7.66275 2.9386 7.618 2.9026 7.54675C2.8666 7.4755 2.87385 7.39 2.9211 7.32575L5.6301 3.6495C5.6891 3.5695 5.7961 3.54125 5.88685 3.582C5.97785 3.6225 6.0281 3.721 6.0076 3.8185L5.46835 6.3895H6.2961C6.37585 6.3895 6.4491 6.4345 6.48485 6.50575C6.52085 6.577 6.5136 6.6625 6.46635 6.72675L3.75735 10.3915C3.71635 10.447 3.6526 10.4772 3.5871 10.4772Z" fill="#27227D"/>
</svg>

<svg xmlns="http://www.w3.org/2000/svg" width="24" height="24" fill="none"><path fill="#fff" d="M18.2 8.544h-2.206v13.785H.259v-7.312l1.947-1.752 5.865-9.482 2.42-2.18 1.077.969L18.2 8.544ZM17.481 2.773h-1.3a.361.361 0 0 1-.362-.362v-.339c0-.2.162-.36.362-.36h1.3c.2 0 .362.16.362.36v.34c0 .199-.162.36-.362.36ZM20.115 2.773h1.3c.2 0 .362-.162.362-.362v-.339c0-.2-.162-.36-.361-.36h-1.3c-.2 0-.362.16-.362.36v.34c0 .199.162.36.361.36Z"/><path fill="#fff" d="M13.162 16.805a2.711 2.711 0 1 1-5.422.001 2.711 2.711 0 0 1 5.422 0Z"/><path fill="#47BAB8" fill-opacity=".75" d="M18.2 8.544h-2.206v13.785H1.784v-6.747l1.949-1.753 4.121-7.914 3.714-3.343L18.2 8.544Z"/><path fill="#47BAB8" d="M18.2 8.544h-2.206v13.785h-1.817V7.546c0-.63-.268-1.23-.736-1.651L10.66 3.39l.909-.818L18.2 8.544Z"/><path fill="#fff" d="M8.39 10.949h4.107V6.213H8.39v4.736Z"/><path fill="#27227D" d="M12.498 11.16h-4.09a.212.212 0 0 1-.213-.212v-1.7a.212.212 0 0 1 .424 0v1.489h3.667V6.424H9.439a.212.212 0 0 1 0-.423h3.059c.116 0 .211.095.211.212v4.735a.212.212 0 0 1-.211.212Z"/><path fill="#27227D" d="M10.492 11.16a.211.211 0 0 1-.212-.211V6.213a.212.212 0 0 1 .424 0v4.736a.211.211 0 0 1-.212.211Z"/><mask id="a" width="12" height="8" x="7" y="1" maskUnits="userSpaceOnUse" style="mask-type:luminance"><path fill="#fff" d="M7.808 1.41h10.624v7.422H7.808V1.41Z"/></mask><g mask="url(#a)"><path fill="#27227D" d="M18.161 8.793h-2.207a.212.212 0 0 1 0-.423h1.656l-7.158-6.446-2.28 2.052a.212.212 0 0 1-.283-.314l2.421-2.18a.212.212 0 0 1 .283 0l7.71 6.942a.212.212 0 0 1-.142.369Z"/></g><path fill="#27227D" d="M15.955 21.718a.212.212 0 0 1-.212-.211V8.58a.211.211 0 1 1 .423 0v12.926a.212.212 0 0 1-.211.211Z"/><mask id="b" width="11" height="10" x="0" y="13" maskUnits="userSpaceOnUse" style="mask-type:luminance"><path fill="#fff" d="M.007 13.083h10.981v9.495H.007v-9.495Z"/></mask><g mask="url(#b)"><path fill="#27227D" d="M10.771 22.578H.22a.212.212 0 0 1-.212-.212v-7.31c0-.06.025-.12.07-.16l1.948-1.752a.212.212 0 0 1 .284.315L.43 15.149v7.005h10.341a.212.212 0 0 1 0 .424Z"/></g><mask id="c" width="9" height="12" x="15" y="2" maskUnits="userSpaceOnUse" style="mask-type:luminance"><path fill="#fff" d="M15.737 2.028h8.256v11.86h-8.256V2.028Z"/></mask><g mask="url(#c)"><path fill="#27227D" d="M18.799 13.888c-.728 0-1.41-.333-2.024-.99-.318-.34-.704-.893-1.006-1.443a.212.212 0 0 1 .371-.203c.282.512.653 1.045.945 1.357.53.568 1.108.856 1.714.856 1.158 0 2.184-1.033 3.05-3.07 1.155-2.717 1.641-6.406 1.72-7.483a.426.426 0 0 0-.115-.323.424.424 0 0 0-.313-.136h-1.364a.212.212 0 1 1 0-.423h1.364a.855.855 0 0 1 .85.911c-.086 1.177-.569 4.836-1.752 7.62-.939 2.207-2.096 3.327-3.44 3.327Z"/></g><path fill="#27227D" d="M14.06 5.1a.211.211 0 0 1-.209-.179 25.11 25.11 0 0 1-.243-1.98.852.852 0 0 1 .846-.91h1.366a.212.212 0 0 1 0 .423h-1.366a.423.423 0 0 0-.424.457c.036.506.126 1.232.24 1.944a.212.212 0 0 1-.21.244Z"/><path fill="#FFEA9E" d="M17.481 2.773h-1.3a.361.361 0 0 1-.362-.362v-.339c0-.2.162-.36.362-.36h1.3c.2 0 .362.16.362.36v.34c0 .199-.162.36-.362.36ZM20.115 2.773h1.3c.2 0 .362-.162.362-.362v-.339c0-.2-.162-.36-.361-.36h-1.3c-.2 0-.362.16-.362.36v.34c0 .199.162.36.361.36Z"/><path fill="#27227D" d="M16.181 1.923a.15.15 0 0 0-.15.15v.338c0 .083.068.15.15.15h1.3a.15.15 0 0 0 .15-.15v-.339a.15.15 0 0 0-.15-.15h-1.3Zm1.3 1.061h-1.3a.573.573 0 0 1-.573-.573v-.339c0-.315.257-.572.573-.572h1.3c.317 0 .574.257.574.572v.34a.573.573 0 0 1-.573.572ZM20.115 1.923a.15.15 0 0 0-.15.15v.338c0 .083.067.15.15.15h1.3a.15.15 0 0 0 .15-.15v-.339a.15.15 0 0 0-.15-.15h-1.3Zm1.3 1.061h-1.3a.574.574 0 0 1-.573-.573v-.339c0-.315.257-.572.573-.572h1.3c.317 0 .574.257.574.572v.34a.574.574 0 0 1-.573.572ZM18.799 11.463c-1.144 0-2.223-.351-2.926-.646a.212.212 0 1 1 .164-.39c.667.28 1.688.613 2.762.613a6.902 6.902 0 0 0 3.15-.75.212.212 0 0 1 .191.377 7.324 7.324 0 0 1-3.341.796Z"/><path fill="#FFEA9E" d="M13.162 16.805a2.711 2.711 0 1 1-5.422.001 2.711 2.711 0 0 1 5.422 0Z"/><path fill="#FFD36E" d="M13.163 16.806a2.71 2.71 0 0 1-3.577 2.568 2.71 2.71 0 0 0 0-5.137 2.712 2.712 0 0 1 3.577 2.57Z"/><path fill="#27227D" d="M10.451 14.305a2.502 2.502 0 0 0-2.498 2.5c0 1.379 1.12 2.5 2.498 2.5a2.502 2.502 0 0 0 2.5-2.5c0-1.378-1.122-2.5-2.5-2.5Zm0 5.423a2.926 2.926 0 0 1-2.922-2.923 2.926 2.926 0 0 1 2.922-2.923 2.926 2.926 0 0 1 2.922 2.923 2.926 2.926 0 0 1-2.922 2.923Z"/><path fill="#fff" d="M10.451 18.124a1.32 1.32 0 0 1 0-2.636 1.32 1.32 0 0 1 0 2.636Z"/><path fill="#27227D" d="M10.452 15.699a1.107 1.107 0 0 0 0 2.213 1.108 1.108 0 0 0 0-2.213Zm0 2.636a1.531 1.531 0 0 1-1.53-1.53c0-.843.687-1.53 1.53-1.53s1.53.687 1.53 1.53c0 .844-.687 1.53-1.53 1.53Z"/><mask id="d" width="10" height="10" x="10" y="13" maskUnits="userSpaceOnUse" style="mask-type:luminance"><path fill="#fff" d="M10.24 13.46h8.777v9.118H10.24V13.46Z"/></mask><g mask="url(#d)"><path fill="#27227D" d="M16.362 22.578h-3.608c-1.338 0-2.513-1.266-2.513-2.71v-.351a.212.212 0 0 1 .424 0v.35c0 1.22.976 2.288 2.09 2.288h3.607c1.123 0 2.225-1.152 2.225-2.325v-6.154a.212.212 0 0 1 .423 0v6.154c0 1.412-1.287 2.748-2.648 2.748Z"/></g><path fill="#fff" d="m3.586 10.266.591-2.815H3.091L5.8 3.775 5.207 6.6h1.088l-2.709 3.665Z"/><path fill="#fff" d="M8.72 6.126a4.205 4.205 0 0 0-4.433-4.199c-2.213.118-3.983 2-3.974 4.216a4.19 4.19 0 0 0 1.12 2.843c.457.492.735 1.123.735 1.794v2.6c0 1.293 1.011 2.403 2.304 2.427a2.35 2.35 0 0 0 2.393-2.35V10.68c0-.617.259-1.197.686-1.642a4.192 4.192 0 0 0 1.17-2.91Z"/><path fill="#47BAB8" fill-opacity=".2" d="M8.72 6.127c0 1.13-.446 2.155-1.17 2.91a2.375 2.375 0 0 0-.686 1.642v2.778a2.348 2.348 0 0 1-2.392 2.35 2.233 2.233 0 0 1-.803-.164 2.35 2.35 0 0 0 1.485-2.186v-2.778c0-.616.259-1.197.685-1.641A4.205 4.205 0 0 0 3.66 2.01a4.205 4.205 0 0 1 5.06 4.118Z"/><path fill="#27227D" d="M4.518 2.132c-.073 0-.146.002-.22.006C2.208 2.25.516 4.045.524 6.142a3.983 3.983 0 0 0 1.065 2.7c.51.55.79 1.238.79 1.939v2.599c0 1.2.94 2.194 2.097 2.215a2.125 2.125 0 0 0 1.537-.61c.413-.406.64-.948.64-1.527v-2.779c0-.652.265-1.288.745-1.788a3.975 3.975 0 0 0 1.11-2.764 3.96 3.96 0 0 0-1.247-2.9 3.955 3.955 0 0 0-2.743-1.095ZM4.517 16.02h-.049c-1.385-.026-2.512-1.21-2.512-2.64v-2.598c0-.594-.24-1.18-.678-1.651A4.403 4.403 0 0 1 .101 6.144C.09 3.825 1.965 1.839 4.276 1.716A4.382 4.382 0 0 1 7.552 2.92a4.377 4.377 0 0 1 1.38 3.207c0 1.145-.437 2.23-1.229 3.056a2.167 2.167 0 0 0-.626 1.496v2.779c0 .693-.273 1.342-.768 1.828a2.541 2.541 0 0 1-1.792.733Z"/><path fill="#27227D" d="M6.865 12.359H2.167a.212.212 0 1 1 0-.423h4.698a.212.212 0 0 1 0 .423Z"/><path fill="#47BAB8" fill-opacity=".5" d="m3.586 10.266.591-2.815H3.091L5.8 3.775 5.207 6.6h1.088l-2.709 3.665Z"/><path fill="#27227D" d="M3.51 7.24h.668a.212.212 0 0 1 .207.255L3.994 9.36l1.883-2.547h-.67a.212.212 0 0 1-.206-.255l.393-1.874L3.51 7.24Zm.077 3.237a.211.211 0 0 1-.207-.255l.537-2.56h-.825a.211.211 0 0 1-.17-.336L5.63 3.65a.212.212 0 0 1 .378.168l-.54 2.571h.828a.211.211 0 0 1 .17.338l-2.709 3.665a.211.211 0 0 1-.17.085Z"/></svg>
